X:1
T:Title
%%score { ( 1 3 ) | ( 2 4 ) }
L:1/8
M:6/8
K:D
V:1 treble nm="Grand Piano"
V:3 treble 
V:2 bass 
V:4 bass 
V:1
 z3 z2[Q:1/4=100] [FA] | [FA]>[GB][FA] FED | DCD [CE]2 [DF] | [EG]>[FA][GB] [GA][GB][Gc] | %4
 [Fd]3 [FA]2 [FA] | [Fd]>[Ec][Ge] [Fd][Ac][GB] |[M:5/8] [FA]>[GB][FA] F2 |[M:1/8] A | %8
[M:3/4] AE AB EB |[M:5/8] [A,CA]-[A,CA]- [A,CA]3 |[M:1/8] A |[M:3/4] [Fd]3 [Ac]2 [GB] | [FA]3 F3 | %13
 c>B A[EG] [FA][CGB] | [DFA]3 [A,DF]3 | [B,D]4 z2 | [FA]-[DF-A-] [DF-A-][DFA] Fd | c4 z2 | %18
[M:5/8] A-A- A3 |[M:1/8] B/c/ |[M:3/4] [Fd]3 e2 c | [Fd]3 [FA]3 | [Fd]>[Fd] [Fd][A^d] [Ad][Ad] | %23
 e3 B3 | d4 z2 | A3 .d3 | A4 z2 |[M:5/8] D-D- D3 |] %28
V:2
 z3 z2 [D,D] | [D,D]>[D,D][D,D] [D,A,D][D,G,D][D,F,] | [F,A,][E,G,][D,F,] [A,,A,]2 [A,,A,] | %3
 [A,,A,]>[A,,A,][A,,A,] [A,,A,][A,,A,][A,,A,] | [D,A,]3 [D,D]2 [D,D] | %5
 [D,A,]>[D,A,][D,A,] [D,A,][D,A,][D,C] |[M:5/8] [D,D]>[D,D][D,D] [D,A,D]2 |[M:1/8] [D,F,D] | %8
[M:3/4] [E,C][E,C] [E,C][E,^G,D] [E,G,D][E,G,D] |[M:5/8] A,,-A,,- A,,3 |[M:1/8] G | %11
[M:3/4] [D,A,]3 [D,B,]2 [D,C] | [D,D]3 [D,A,D]3 | [A,CG]>[A,DG] [A,EG][K:bass][A,,A,] [A,,A,]A,, | %14
 D,3 D,3 | G,,G,, G,,G,, G,,G | D,D, D,D, [D,A,D]F | E-[E,E-] [E,E-][E,E] [E,B,E][E,^G,D] | %18
[M:5/8] A,,-[A,,-E,][A,,-F,] [A,,G,]2 |[M:1/8] z |[M:3/4] [D,A,]3[K:treble] [A,G]2 [A,G] | %21
 [D,A,]3 [D,D]3 | [D,A,]>[D,A,] [D,A,][F,B,] [F,B,][F,B,] | [G,B,G]3 [G,G]3 | %24
 [^G,B,=F][G,B,] [G,B,][G,B,] .[G,B,F]2 | [A,DF][A,D] [A,D][A,F][K:bass] .A,2 | %26
 [A,,A,][A,,A,] [A,,A,][A,,A,] .[A,,A,]2 |[M:5/8] [D,F,A,][D,F,][D,F,] [D,F,]2 |] %28
V:3
 x6 | x6 | x6 | x6 | x6 | x6 |[M:5/8] x5 |[M:1/8] x |[M:3/4] x6 |[M:5/8] x5 |[M:1/8] x | %11
[M:3/4] x6 | x6 | x6 | x6 | G,G, G,G, [G,DG]B | .D2 z2 z2 | z A, A,A, dB |[M:5/8] CCD E2 | %19
[M:1/8] x |[M:3/4] x6 | x6 | x6 | x6 | z =F FF cB | z F .F2 FF | CC CC [CE]F |[M:5/8] z A,B, A,2 |] %28
V:4
 x6 | x6 | x6 | x6 | x6 | x6 |[M:5/8] x5 |[M:1/8] x |[M:3/4] x6 |[M:5/8] x5 |[M:1/8] x | %11
[M:3/4] x6 | x6 | x3[K:bass] x3 | x6 | x6 | x6 | .[E,A,]2 z2 z2 |[M:5/8] E, z z z2 |[M:1/8] x | %20
[M:3/4] x3[K:treble] x3 | x6 | x6 | x6 | x6 | x4[K:bass] x2 | x6 |[M:5/8] x5 |] %28

